images/5459529.svg

<?xml version="1.0" encoding="UTF-8"?>
<svg xmlns="http://www.w3.org/2000/svg" xmlns:xlink="http://www.w3.org/1999/xlink" width="300pt" height="300pt" viewBox="0 0 300 300" version="1.1">
<defs>
<g>
<symbol overflow="visible" id="glyph0-0">
<path style="stroke:none;" d="M 0.453125 1.59375 L 0.453125 -6.34375 L 4.953125 -6.34375 L 4.953125 1.59375 Z M 0.953125 1.09375 L 4.453125 1.09375 L 4.453125 -5.84375 L 0.953125 -5.84375 Z M 0.953125 1.09375 "/>
</symbol>
<symbol overflow="visible" id="glyph0-1">
<path style="stroke:none;" d="M 0.890625 -6.5625 L 2.078125 -6.5625 L 4.984375 -1.078125 L 4.984375 -6.5625 L 5.84375 -6.5625 L 5.84375 0 L 4.65625 0 L 1.75 -5.484375 L 1.75 0 L 0.890625 0 Z M 0.890625 -6.5625 "/>
</symbol>
<symbol overflow="visible" id="glyph0-2">
<path style="stroke:none;" d="M 0.890625 -6.5625 L 1.765625 -6.5625 L 1.765625 -3.875 L 5 -3.875 L 5 -6.5625 L 5.890625 -6.5625 L 5.890625 0 L 5 0 L 5 -3.125 L 1.765625 -3.125 L 1.765625 0 L 0.890625 0 Z M 0.890625 -6.5625 "/>
</symbol>
<symbol overflow="visible" id="glyph0-3">
<path style="stroke:none;" d="M 3.546875 -5.953125 C 2.898438 -5.953125 2.382812 -5.710938 2 -5.234375 C 1.625 -4.753906 1.4375 -4.101562 1.4375 -3.28125 C 1.4375 -2.445312 1.625 -1.789062 2 -1.3125 C 2.382812 -0.832031 2.898438 -0.59375 3.546875 -0.59375 C 4.191406 -0.59375 4.703125 -0.832031 5.078125 -1.3125 C 5.453125 -1.789062 5.640625 -2.445312 5.640625 -3.28125 C 5.640625 -4.101562 5.453125 -4.753906 5.078125 -5.234375 C 4.703125 -5.710938 4.191406 -5.953125 3.546875 -5.953125 Z M 3.546875 -6.6875 C 4.460938 -6.6875 5.195312 -6.375 5.75 -5.75 C 6.300781 -5.132812 6.578125 -4.3125 6.578125 -3.28125 C 6.578125 -2.238281 6.300781 -1.410156 5.75 -0.796875 C 5.195312 -0.179688 4.460938 0.125 3.546875 0.125 C 2.617188 0.125 1.878906 -0.179688 1.328125 -0.796875 C 0.773438 -1.410156 0.5 -2.238281 0.5 -3.28125 C 0.5 -4.3125 0.773438 -5.132812 1.328125 -5.75 C 1.878906 -6.375 2.617188 -6.6875 3.546875 -6.6875 Z M 3.546875 -6.6875 "/>
</symbol>
</g>
</defs>
<g id="surface36521">
<rect x="0" y="0" width="300" height="300" style="fill:rgb(100%,100%,100%);fill-opacity:1;stroke:none;"/>
<path style="fill:none;stroke-width:1.2;stroke-linecap:butt;stroke-linejoin:miter;stroke:rgb(0%,0%,0%);stroke-opacity:1;stroke-miterlimit:10;" d="M 128.199219 97.5625 L 118.859375 118.136719 "/>
<path style="fill:none;stroke-width:1.2;stroke-linecap:butt;stroke-linejoin:miter;stroke:rgb(0%,0%,0%);stroke-opacity:1;stroke-miterlimit:10;" d="M 118.859375 118.136719 L 107.792969 120.40625 "/>
<path style="fill:none;stroke-width:1.2;stroke-linecap:butt;stroke-linejoin:miter;stroke:rgb(0%,0%,100%);stroke-opacity:1;stroke-miterlimit:10;" d="M 107.792969 120.40625 L 96.726562 122.675781 "/>
<path style="fill:none;stroke-width:1.2;stroke-linecap:butt;stroke-linejoin:miter;stroke:rgb(0%,0%,0%);stroke-opacity:1;stroke-miterlimit:10;" d="M 117.714844 123.800781 L 108.859375 125.617188 "/>
<path style="fill:none;stroke-width:1.2;stroke-linecap:butt;stroke-linejoin:miter;stroke:rgb(0%,0%,100%);stroke-opacity:1;stroke-miterlimit:10;" d="M 108.859375 125.617188 L 100.007812 127.429688 "/>
<path style="fill:none;stroke-width:1.2;stroke-linecap:butt;stroke-linejoin:miter;stroke:rgb(0%,0%,0%);stroke-opacity:1;stroke-miterlimit:10;" d="M 130.019531 137.789062 L 118.859375 118.136719 "/>
<path style="fill:none;stroke-width:1.2;stroke-linecap:butt;stroke-linejoin:miter;stroke:rgb(0%,0%,100%);stroke-opacity:1;stroke-miterlimit:10;" d="M 96.726562 122.675781 L 94.199219 145.132812 "/>
<path style=" stroke:none;fill-rule:nonzero;fill:rgb(100%,100%,100%);fill-opacity:1;" d="M 93.726562 117.175781 L 100.726562 117.175781 L 100.726562 128.175781 L 93.726562 128.175781 Z M 93.726562 117.175781 "/>
<g style="fill:rgb(0%,0%,100%);fill-opacity:1;">
  <use xlink:href="#glyph0-1" x="93.726562" y="125.838867"/>
</g>
<path style="fill:none;stroke-width:1.2;stroke-linecap:butt;stroke-linejoin:miter;stroke:rgb(0%,0%,100%);stroke-opacity:1;stroke-miterlimit:10;" d="M 94.199219 145.132812 L 114.777344 154.472656 "/>
<path style="fill:none;stroke-width:1.2;stroke-linecap:butt;stroke-linejoin:miter;stroke:rgb(0%,0%,100%);stroke-opacity:1;stroke-miterlimit:10;" d="M 94.199219 145.132812 L 84.375 150.710938 "/>
<path style="fill:none;stroke-width:1.2;stroke-linecap:butt;stroke-linejoin:miter;stroke:rgb(0%,0%,0%);stroke-opacity:1;stroke-miterlimit:10;" d="M 84.375 150.710938 L 74.550781 156.289062 "/>
<path style=" stroke:none;fill-rule:nonzero;fill:rgb(100%,100%,100%);fill-opacity:1;" d="M 91.199219 139.632812 L 98.199219 139.632812 L 98.199219 150.632812 L 91.199219 150.632812 Z M 91.199219 139.632812 "/>
<g style="fill:rgb(0%,0%,100%);fill-opacity:1;">
  <use xlink:href="#glyph0-1" x="91.199219" y="148.295898"/>
</g>
<path style="fill:none;stroke-width:1.2;stroke-linecap:butt;stroke-linejoin:miter;stroke:rgb(0%,0%,100%);stroke-opacity:1;stroke-miterlimit:10;" d="M 114.777344 154.472656 L 122.398438 146.128906 "/>
<path style="fill:none;stroke-width:1.2;stroke-linecap:butt;stroke-linejoin:miter;stroke:rgb(0%,0%,0%);stroke-opacity:1;stroke-miterlimit:10;" d="M 122.398438 146.128906 L 130.019531 137.789062 "/>
<path style="fill:none;stroke-width:1.2;stroke-linecap:butt;stroke-linejoin:miter;stroke:rgb(0%,0%,100%);stroke-opacity:1;stroke-miterlimit:10;" d="M 112.375 149.214844 L 118.472656 142.542969 "/>
<path style="fill:none;stroke-width:1.2;stroke-linecap:butt;stroke-linejoin:miter;stroke:rgb(0%,0%,0%);stroke-opacity:1;stroke-miterlimit:10;" d="M 118.472656 142.542969 L 124.570312 135.871094 "/>
<path style=" stroke:none;fill-rule:nonzero;fill:rgb(100%,100%,100%);fill-opacity:1;" d="M 111.777344 148.972656 L 118.777344 148.972656 L 118.777344 159.972656 L 111.777344 159.972656 Z M 111.777344 148.972656 "/>
<g style="fill:rgb(0%,0%,100%);fill-opacity:1;">
  <use xlink:href="#glyph0-1" x="111.777344" y="157.635742"/>
</g>
<path style="fill:none;stroke-width:1.2;stroke-linecap:butt;stroke-linejoin:miter;stroke:rgb(0%,0%,0%);stroke-opacity:1;stroke-miterlimit:10;" d="M 130.019531 137.789062 L 152.472656 140.3125 "/>
<path style="fill:none;stroke-width:1.2;stroke-linecap:butt;stroke-linejoin:miter;stroke:rgb(0%,0%,0%);stroke-opacity:1;stroke-miterlimit:10;" d="M 152.472656 140.3125 L 156.996094 150.667969 "/>
<path style="fill:none;stroke-width:1.2;stroke-linecap:butt;stroke-linejoin:miter;stroke:rgb(0%,0%,100%);stroke-opacity:1;stroke-miterlimit:10;" d="M 156.996094 150.667969 L 161.515625 161.019531 "/>
<path style="fill:none;stroke-width:1.2;stroke-linecap:butt;stroke-linejoin:miter;stroke:rgb(0%,0%,100%);stroke-opacity:1;stroke-miterlimit:10;" d="M 161.515625 161.019531 L 172.742188 162.28125 "/>
<path style="fill:none;stroke-width:1.2;stroke-linecap:butt;stroke-linejoin:miter;stroke:rgb(0%,0%,0%);stroke-opacity:1;stroke-miterlimit:10;" d="M 172.742188 162.28125 L 183.96875 163.542969 "/>
<path style=" stroke:none;fill-rule:nonzero;fill:rgb(100%,100%,100%);fill-opacity:1;" d="M 154.515625 155.519531 L 168.515625 155.519531 L 168.515625 166.519531 L 154.515625 166.519531 Z M 154.515625 155.519531 "/>
<g style="fill:rgb(0%,0%,100%);fill-opacity:1;">
  <use xlink:href="#glyph0-1" x="154.515625" y="164.182617"/>
  <use xlink:href="#glyph0-2" x="161.493164" y="164.182617"/>
</g>
<path style="fill:none;stroke-width:1.2;stroke-linecap:butt;stroke-linejoin:miter;stroke:rgb(0%,0%,0%);stroke-opacity:1;stroke-miterlimit:10;" d="M 186.109375 165.121094 L 192.816406 156.03125 "/>
<path style="fill:none;stroke-width:1.2;stroke-linecap:butt;stroke-linejoin:miter;stroke:rgb(100%,0%,0%);stroke-opacity:1;stroke-miterlimit:10;" d="M 192.816406 156.03125 L 199.523438 146.9375 "/>
<path style="fill:none;stroke-width:1.2;stroke-linecap:butt;stroke-linejoin:miter;stroke:rgb(0%,0%,0%);stroke-opacity:1;stroke-miterlimit:10;" d="M 181.832031 161.96875 L 188.539062 152.875 "/>
<path style="fill:none;stroke-width:1.2;stroke-linecap:butt;stroke-linejoin:miter;stroke:rgb(100%,0%,0%);stroke-opacity:1;stroke-miterlimit:10;" d="M 188.539062 152.875 L 195.246094 143.78125 "/>
<path style="fill:none;stroke-width:1.2;stroke-linecap:butt;stroke-linejoin:miter;stroke:rgb(0%,0%,0%);stroke-opacity:1;stroke-miterlimit:10;" d="M 183.96875 163.542969 L 193.011719 184.253906 "/>
<path style=" stroke:none;fill-rule:nonzero;fill:rgb(100%,100%,100%);fill-opacity:1;" d="M 193.382812 139.859375 L 201.382812 139.859375 L 201.382812 150.859375 L 193.382812 150.859375 Z M 193.382812 139.859375 "/>
<g style="fill:rgb(100%,0%,0%);fill-opacity:1;">
  <use xlink:href="#glyph0-3" x="193.382812" y="148.522461"/>
</g>
<path style="fill:none;stroke-width:1.2;stroke-linecap:butt;stroke-linejoin:miter;stroke:rgb(0%,0%,0%);stroke-opacity:1;stroke-miterlimit:10;" d="M 193.011719 184.253906 L 179.597656 202.4375 "/>
<path style="fill:none;stroke-width:1.2;stroke-linecap:butt;stroke-linejoin:miter;stroke:rgb(0%,0%,0%);stroke-opacity:1;stroke-miterlimit:10;" d="M 193.011719 184.253906 L 215.46875 186.777344 "/>
<path style="fill:none;stroke-width:1.2;stroke-linecap:butt;stroke-linejoin:miter;stroke:rgb(0%,0%,0%);stroke-opacity:1;stroke-miterlimit:10;" d="M 215.46875 186.777344 L 228.882812 168.59375 "/>
<path style="fill:none;stroke-width:1.2;stroke-linecap:butt;stroke-linejoin:miter;stroke:rgb(0%,0%,0%);stroke-opacity:1;stroke-miterlimit:10;" d="M 228.882812 168.59375 L 251.335938 171.117188 "/>
<path style="fill:none;stroke-width:1.2;stroke-linecap:butt;stroke-linejoin:miter;stroke:rgb(0%,0%,0%);stroke-opacity:1;stroke-miterlimit:10;" d="M 231.71875 163.5625 L 249.683594 165.582031 "/>
<path style="fill:none;stroke-width:1.2;stroke-linecap:butt;stroke-linejoin:miter;stroke:rgb(0%,0%,0%);stroke-opacity:1;stroke-miterlimit:10;" d="M 219.839844 147.882812 L 228.882812 168.59375 "/>
<path style="fill:none;stroke-width:1.2;stroke-linecap:butt;stroke-linejoin:miter;stroke:rgb(0%,0%,0%);stroke-opacity:1;stroke-miterlimit:10;" d="M 251.335938 171.117188 L 264.75 152.933594 "/>
<path style="fill:none;stroke-width:1.2;stroke-linecap:butt;stroke-linejoin:miter;stroke:rgb(0%,0%,0%);stroke-opacity:1;stroke-miterlimit:10;" d="M 264.75 152.933594 L 255.707031 132.222656 "/>
<path style="fill:none;stroke-width:1.2;stroke-linecap:butt;stroke-linejoin:miter;stroke:rgb(0%,0%,0%);stroke-opacity:1;stroke-miterlimit:10;" d="M 258.972656 152.988281 L 251.738281 136.421875 "/>
<path style="fill:none;stroke-width:1.2;stroke-linecap:butt;stroke-linejoin:miter;stroke:rgb(0%,0%,0%);stroke-opacity:1;stroke-miterlimit:10;" d="M 255.707031 132.222656 L 233.253906 129.699219 "/>
<path style="fill:none;stroke-width:1.2;stroke-linecap:butt;stroke-linejoin:miter;stroke:rgb(0%,0%,0%);stroke-opacity:1;stroke-miterlimit:10;" d="M 233.253906 129.699219 L 219.839844 147.882812 "/>
<path style="fill:none;stroke-width:1.2;stroke-linecap:butt;stroke-linejoin:miter;stroke:rgb(0%,0%,0%);stroke-opacity:1;stroke-miterlimit:10;" d="M 236.191406 134.671875 L 225.460938 149.222656 "/>
<path style="fill:none;stroke-width:1.2;stroke-linecap:butt;stroke-linejoin:miter;stroke:rgb(0%,0%,0%);stroke-opacity:1;stroke-miterlimit:10;" d="M 74.550781 156.289062 L 55.0625 144.847656 "/>
<path style="fill:none;stroke-width:1.2;stroke-linecap:butt;stroke-linejoin:miter;stroke:rgb(0%,0%,0%);stroke-opacity:1;stroke-miterlimit:10;" d="M 69.910156 159.730469 L 54.320312 150.578125 "/>
<path style="fill:none;stroke-width:1.2;stroke-linecap:butt;stroke-linejoin:miter;stroke:rgb(0%,0%,0%);stroke-opacity:1;stroke-miterlimit:10;" d="M 74.386719 178.882812 L 74.550781 156.289062 "/>
<path style="fill:none;stroke-width:1.2;stroke-linecap:butt;stroke-linejoin:miter;stroke:rgb(0%,0%,0%);stroke-opacity:1;stroke-miterlimit:10;" d="M 55.0625 144.847656 L 35.414062 156.007812 "/>
<path style="fill:none;stroke-width:1.2;stroke-linecap:butt;stroke-linejoin:miter;stroke:rgb(0%,0%,0%);stroke-opacity:1;stroke-miterlimit:10;" d="M 35.414062 156.007812 L 35.25 178.601562 "/>
<path style="fill:none;stroke-width:1.2;stroke-linecap:butt;stroke-linejoin:miter;stroke:rgb(0%,0%,0%);stroke-opacity:1;stroke-miterlimit:10;" d="M 40.714844 158.304688 L 40.582031 176.382812 "/>
<path style="fill:none;stroke-width:1.2;stroke-linecap:butt;stroke-linejoin:miter;stroke:rgb(0%,0%,0%);stroke-opacity:1;stroke-miterlimit:10;" d="M 35.25 178.601562 L 54.738281 190.042969 "/>
<path style="fill:none;stroke-width:1.2;stroke-linecap:butt;stroke-linejoin:miter;stroke:rgb(0%,0%,0%);stroke-opacity:1;stroke-miterlimit:10;" d="M 54.738281 190.042969 L 74.386719 178.882812 "/>
<path style="fill:none;stroke-width:1.2;stroke-linecap:butt;stroke-linejoin:miter;stroke:rgb(0%,0%,0%);stroke-opacity:1;stroke-miterlimit:10;" d="M 54.078125 184.300781 L 69.796875 175.375 "/>
</g>
</svg>

<svg xmlns="http://www.w3.org/2000/svg" xmlns:xlink="http://www.w3.org/1999/xlink" width="300pt" height="300pt" viewBox="0 0 300 300"><defs><symbol overflow="visible"><path d="M.453 1.594v-7.938h4.5v7.938zm.5-.5h3.5v-6.938h-3.5zm0 0"/></symbol><symbol overflow="visible" id="a"><path d="M.89-6.563H2.08l2.906 5.485v-5.484h.86V0H4.656L1.75-5.484V0H.89zm0 0"/></symbol><symbol overflow="visible" id="b"><path d="M.89-6.563h.876v2.688H5v-2.688h.89V0H5v-3.125H1.766V0H.89zm0 0"/></symbol><symbol overflow="visible" id="c"><path d="M3.547-5.953c-.65 0-1.164.242-1.547.72-.375.48-.563 1.13-.563 1.952 0 .835.188 1.49.563 1.967.383.48.898.72 1.547.72.644 0 1.156-.24 1.53-.72.376-.476.564-1.132.564-1.968 0-.822-.187-1.474-.562-1.954-.375-.477-.887-.72-1.53-.72zm0-.734c.914 0 1.648.312 2.203.937.55.617.828 1.438.828 2.47 0 1.042-.277 1.87-.828 2.483-.555.617-1.29.922-2.203.922-.93 0-1.668-.305-2.22-.922C.774-1.41.5-2.237.5-3.28c0-1.033.273-1.853.828-2.47.55-.625 1.29-.938 2.22-.938zm0 0"/></symbol></defs><g><path fill="#fff" d="M0 0h300v300H0z"/><path d="M128.2 97.563l-9.34 20.574M118.86 118.137l-11.067 2.27" stroke-width="1.2" stroke="#000" stroke-miterlimit="10" fill="none"/><path d="M107.793 120.406l-11.066 2.27" stroke-width="1.2" stroke="#00f" stroke-miterlimit="10" fill="none"/><path d="M117.715 123.8l-8.856 1.817" stroke-width="1.2" stroke="#000" stroke-miterlimit="10" fill="none"/><path d="M108.86 125.617l-8.852 1.813" stroke-width="1.2" stroke="#00f" stroke-miterlimit="10" fill="none"/><path d="M130.02 137.79l-11.16-19.653" stroke-width="1.2" stroke="#000" stroke-miterlimit="10" fill="none"/><path d="M96.727 122.676L94.2 145.133" stroke-width="1.2" stroke="#00f" stroke-miterlimit="10" fill="none"/><path d="M93.727 117.176h7v11h-7zm0 0" fill="#fff"/><use xlink:href="#a" x="93.727" y="125.839" fill="#00f"/><path d="M94.2 145.133l20.577 9.34M94.2 145.133l-9.825 5.578" stroke-width="1.2" stroke="#00f" stroke-miterlimit="10" fill="none"/><path d="M84.375 150.71l-9.824 5.58" stroke-width="1.2" stroke="#000" stroke-miterlimit="10" fill="none"/><path d="M91.2 139.633h7v11h-7zm0 0" fill="#fff"/><use xlink:href="#a" x="91.199" y="148.296" fill="#00f"/><path d="M114.777 154.473l7.62-8.344" stroke-width="1.2" stroke="#00f" stroke-miterlimit="10" fill="none"/><path d="M122.398 146.13l7.622-8.34" stroke-width="1.2" stroke="#000" stroke-miterlimit="10" fill="none"/><path d="M112.375 149.215l6.098-6.672" stroke-width="1.2" stroke="#00f" stroke-miterlimit="10" fill="none"/><path d="M118.473 142.543l6.097-6.672" stroke-width="1.2" stroke="#000" stroke-miterlimit="10" fill="none"/><path d="M111.777 148.973h7v11h-7zm0 0" fill="#fff"/><use xlink:href="#a" x="111.777" y="157.636" fill="#00f"/><path d="M130.02 137.79l22.453 2.523M152.473 140.313l4.523 10.355" stroke-width="1.2" stroke="#000" stroke-miterlimit="10" fill="none"/><path d="M156.996 150.668l4.52 10.352M161.516 161.02l11.226 1.26" stroke-width="1.2" stroke="#00f" stroke-miterlimit="10" fill="none"/><path d="M172.742 162.28l11.227 1.263" stroke-width="1.2" stroke="#000" stroke-miterlimit="10" fill="none"/><path d="M154.516 155.52h14v11h-14zm0 0" fill="#fff"/><g fill="#00f"><use xlink:href="#a" x="154.516" y="164.183"/><use xlink:href="#b" x="161.493" y="164.183"/></g><path d="M186.11 165.12l6.706-9.09" stroke-width="1.2" stroke="#000" stroke-miterlimit="10" fill="none"/><path d="M192.816 156.03l6.707-9.093" stroke-width="1.2" stroke="#f00" stroke-miterlimit="10" fill="none"/><path d="M181.832 161.97l6.707-9.095" stroke-width="1.2" stroke="#000" stroke-miterlimit="10" fill="none"/><path d="M188.54 152.875l6.706-9.094" stroke-width="1.2" stroke="#f00" stroke-miterlimit="10" fill="none"/><path d="M183.97 163.543l9.042 20.71" stroke-width="1.2" stroke="#000" stroke-miterlimit="10" fill="none"/><path d="M193.383 139.86h8v11h-8zm0 0" fill="#fff"/><use xlink:href="#c" x="193.383" y="148.522" fill="#f00"/><path d="M193.012 184.254l-13.414 18.184M193.012 184.254l22.457 2.523M215.47 186.777l13.413-18.183M228.883 168.594l22.453 2.523M231.72 163.563l17.964 2.02M219.84 147.883l9.043 20.71M251.336 171.117l13.414-18.183M264.75 152.934l-9.043-20.71M258.973 152.988l-7.235-16.566M255.707 132.223l-22.453-2.524M233.254 129.7l-13.414 18.183M236.19 134.672l-10.73 14.55M74.55 156.29l-19.487-11.442M69.91 159.73l-15.59-9.152M74.387 178.883l.164-22.594M55.063 144.848l-19.65 11.16M35.414 156.008l-.164 22.594M40.715 158.305l-.133 18.078M35.25 178.602l19.488 11.44M54.738 190.043l19.65-11.16M54.078 184.3l15.72-8.925" stroke-width="1.2" stroke="#000" stroke-miterlimit="10" fill="none"/></g></svg>
